src/images/svg/vk.svg

<svg width="30" height="30" viewBox="0 0 30 30" fill="none" xmlns="http://www.w3.org/2000/svg">
<path d="M15 0C6.71601 0 0 6.7157 0 15C0 23.2843 6.71601 30 15 30C23.284 30 30 23.2843 30 15C30 6.7157 23.284 0 15 0ZM22.6088 16.6223C23.3079 17.3052 24.0476 17.9478 24.6752 18.7013C24.9532 19.0346 25.2153 19.3792 25.4148 19.7669C25.6996 20.3196 25.4425 20.9257 24.9477 20.9586L21.8747 20.958C21.081 21.0236 20.4494 20.7035 19.9169 20.1609C19.4919 19.7285 19.0975 19.2666 18.6881 18.8194C18.5208 18.6359 18.3447 18.4631 18.1347 18.3272C17.7158 18.0546 17.3518 18.1381 17.1118 18.5758C16.8672 19.0211 16.8114 19.5146 16.788 20.0102C16.7546 20.7348 16.5361 20.9242 15.809 20.9583C14.2554 21.031 12.7814 20.7953 11.4114 20.0121C10.2028 19.3212 9.26731 18.3462 8.45217 17.2422C6.86486 15.0902 5.64921 12.7283 4.55693 10.2985C4.3111 9.7513 4.49095 9.45852 5.09463 9.44716C6.0976 9.42783 7.10056 9.43028 8.10353 9.44624C8.51171 9.45268 8.78179 9.68624 8.93862 10.0714C9.48061 11.4049 10.1451 12.6737 10.9777 13.8503C11.1996 14.1637 11.4261 14.4761 11.7486 14.6974C12.1047 14.9417 12.376 14.861 12.5438 14.4635C12.6513 14.2109 12.6976 13.9409 12.7209 13.6702C12.8007 12.743 12.8102 11.8162 12.6721 10.8927C12.5862 10.3148 12.2612 9.94158 11.6851 9.83233C11.3917 9.77678 11.4347 9.66813 11.5774 9.50056C11.8251 9.21084 12.0571 9.03161 12.5208 9.03161L15.9928 9.031C16.5401 9.13841 16.6628 9.38394 16.7371 9.93514L16.7402 13.7936C16.7337 14.0069 16.8473 14.6391 17.2303 14.7787C17.5372 14.88 17.7397 14.6339 17.9233 14.4396C18.7559 13.556 19.3492 12.5131 19.8804 11.4338C20.1149 10.9577 20.3171 10.4652 20.5136 9.97166C20.6596 9.60675 20.8868 9.42721 21.2986 9.43335L24.642 9.43734C24.7406 9.43734 24.8406 9.43826 24.9382 9.45514C25.5017 9.55151 25.6561 9.79396 25.4817 10.3436C25.2074 11.2073 24.6743 11.9266 24.1531 12.6479C23.5946 13.4201 22.9989 14.1652 22.4458 14.9408C21.9376 15.6497 21.9778 16.0066 22.6088 16.6223Z" fill="#999999"/>
</svg>

<svg width="30" height="30" fill="none" xmlns="http://www.w3.org/2000/svg"><path d="M15 0C6.716 0 0 6.716 0 15c0 8.284 6.716 15 15 15 8.284 0 15-6.716 15-15 0-8.284-6.716-15-15-15zm7.609 16.622c.699.683 1.439 1.326 2.066 2.08.278.333.54.677.74 1.065.285.553.027 1.159-.467 1.192l-3.073-.001c-.794.066-1.426-.255-1.958-.797-.425-.433-.82-.894-1.229-1.342a2.871 2.871 0 00-.553-.492c-.42-.272-.783-.189-1.023.249-.245.445-.3.939-.324 1.434-.033.725-.252.914-.979.948-1.554.073-3.028-.163-4.398-.946-1.208-.69-2.144-1.666-2.959-2.77-1.587-2.152-2.803-4.514-3.895-6.944-.246-.547-.066-.84.538-.85a85.522 85.522 0 013.009-.002c.408.007.678.24.835.625.542 1.334 1.206 2.603 2.039 3.78.222.313.448.625.77.846.357.245.628.164.796-.233.107-.253.154-.523.177-.794.08-.927.09-1.854-.049-2.777-.086-.578-.41-.951-.987-1.06-.293-.056-.25-.165-.108-.332.248-.29.48-.47.944-.47h3.472c.547.107.67.353.744.904l.003 3.859c-.006.213.107.845.49.985.307.101.51-.145.693-.34.833-.883 1.426-1.926 1.957-3.005.235-.476.437-.969.634-1.462.146-.365.373-.545.785-.539l3.343.004c.099 0 .199.001.296.018.564.097.718.339.544.889-.275.863-.808 1.583-1.329 2.304-.558.772-1.154 1.517-1.707 2.293-.508.709-.468 1.066.163 1.681z" fill="#999"/></svg>
